modules/zondicons/icons/arrow-outline-right.svg

<?xml version="1.0" encoding="UTF-8" standalone="no"?>
<svg width="20px" height="20px" viewBox="0 0 20 20" version="1.1" xmlns="http://www.w3.org/2000/svg" xmlns:xlink="http://www.w3.org/1999/xlink">
    <!-- Generator: Sketch 3.7.2 (28276) - http://www.bohemiancoding.com/sketch -->
    <title>arrow-outline-right</title>
    <desc>Created with Sketch.</desc>
    <defs></defs>
    <g id="Page-1" stroke="none" stroke-width="1" fill="none" fill-rule="evenodd">
        <g id="arrow-outline-right" fill="#000000">
            <path d="M20,10 C20,4.4771525 15.5228475,0 10,0 C4.4771525,0 9.50500275e-16,4.4771525 6.123234e-16,10 C2.74146524e-16,15.5228475 4.4771525,20 10,20 C15.5228475,20 20,15.5228475 20,10 L20,10 Z M18,10 C18,5.581722 14.418278,2 10,2 C5.581722,2 2,5.581722 2,10 C2,14.418278 5.581722,18 10,18 C14.418278,18 18,14.418278 18,10 L18,10 Z M10,12 L10,8 L5,8 L5,12 L10,12 L10,12 Z M15,10 L10,5 L10,15 L15,10 L15,10 Z" id="Combined-Shape"></path>
        </g>
    </g>
</svg>

<svg width="20" height="20" viewBox="0 0 20 20" xmlns="http://www.w3.org/2000/svg"><path d="M20 10c0-5.523-4.477-10-10-10S0 4.477 0 10s4.477 10 10 10 10-4.477 10-10zm-2 0a8 8 0 1 0-16 0 8 8 0 0 0 16 0zm-8 2V8H5v4h5zm5-2l-5-5v10l5-5z" fill="#000" fill-rule="evenodd"/></svg>
